exports/share-of-the-workforce-employed-in-the-coal-industry-united-kingdom_v3_850x600.svg

<svg xmlns="http://www.w3.org/2000/svg" version="1.1" style="background-color:#fff;-webkit-font-smoothing:antialiased" width="850" height="600" font-family="'Helvetica Neue',Helvetica,Arial,sans-serif" font-size="18" text-rendering="optimizeLegibility"><g class="ChartTab"><g class="HeaderView"><g opacity=".8" transform="matrix(.27 0 0 .27 778 15)"><a xmlns:xlink="http://www.w3.org/1999/xlink" xlink:href="https://ourworldindata.org" target="_blank"><g><path fill="#1B2543" d="M0 0h211.2v130.1H0z"/><path fill="#E63912" d="M0 112.2h211.2v17.9H0z"/><g><path fill="none" d="M1.2 12.3h210.2v99.2H1.2z"/><path fill="#FFF" d="M37.8 32.2c0 12.7-7.7 19.4-17.1 19.4-9.7 0-16.6-7.5-16.6-18.7 0-11.7 7.3-19.3 17.1-19.3 10.1.1 16.6 7.7 16.6 18.6zm-28.6.6c0 7.9 4.3 14.9 11.8 14.9 7.5 0 11.8-6.9 11.8-15.3 0-7.3-3.8-14.9-11.8-14.9-7.9 0-11.8 7.3-11.8 15.3zM62.7 43.8c0 2.7.1 5.1.2 7.2h-4.3l-.3-4.3h-.1c-1.3 2.1-4 4.9-8.8 4.9-4.2 0-9.1-2.3-9.1-11.6V24.6h4.8v14.6c0 5 1.5 8.4 5.9 8.4 3.2 0 5.5-2.2 6.3-4.4.3-.7.4-1.6.4-2.5V24.6h4.8v19.2zM67.3 32.8c0-3.1-.1-5.8-.2-8.2h4.2l.2 5.2h.2c1.2-3.5 4.1-5.8 7.3-5.8.5 0 .9.1 1.4.2v4.5c-.5-.1-1-.2-1.6-.2-3.4 0-5.8 2.6-6.5 6.2-.1.7-.2 1.4-.2 2.2V51h-4.8V32.8zM95.4 51L86 14.2h5l4.4 18.6c1.1 4.6 2.1 9.2 2.7 12.7h.1c.6-3.7 1.8-8 3-12.8l4.9-18.5h5l4.5 18.7c1 4.4 2 8.7 2.6 12.6h.1c.8-4 1.8-8.1 3-12.7l4.9-18.5h4.9L120.6 51h-5L111 31.9c-1.1-4.7-1.9-8.3-2.4-12h-.1c-.7 3.7-1.5 7.3-2.8 12L100.4 51h-5zM154.9 37.6c0 9.8-6.8 14-13.2 14-7.2 0-12.7-5.2-12.7-13.6 0-8.8 5.8-14 13.1-14 7.7 0 12.8 5.5 12.8 13.6zm-21 .3c0 5.8 3.3 10.1 8 10.1 4.6 0 8-4.3 8-10.3 0-4.5-2.2-10.1-7.9-10.1s-8.1 5.2-8.1 10.3zM158.2 32.8c0-3.1-.1-5.8-.2-8.2h4.2l.2 5.2h.2c1.2-3.5 4.1-5.8 7.3-5.8.5 0 .9.1 1.4.2v4.5c-.5-.1-1-.2-1.6-.2-3.4 0-5.8 2.6-6.5 6.2-.1.7-.2 1.4-.2 2.2V51h-4.8V32.8zM173.5 12.3h4.8V51h-4.8V12.3zM206.5 12.3v31.9c0 2.3.1 5 .2 6.8h-4.3l-.2-4.6h-.2c-1.5 2.9-4.7 5.2-9 5.2-6.4 0-11.3-5.4-11.3-13.4-.1-8.8 5.4-14.2 11.9-14.2 4 0 6.8 1.9 8 4h.1V12.3h4.8zm-4.8 23.1c0-.6-.1-1.4-.2-2a7 7 0 00-6.9-5.6c-5 0-7.9 4.4-7.9 10.2 0 5.3 2.6 9.8 7.8 9.8 3.2 0 6.2-2.1 7.1-5.7.2-.7.2-1.3.2-2.1v-4.6zM42.8 64c.1 1.6-1.1 2.9-3.1 2.9-1.7 0-2.9-1.3-2.9-2.9 0-1.7 1.3-3 3-3 1.9 0 3 1.3 3 3zm-5.4 33.8V71.4h4.8v26.4h-4.8zM47.5 78.6c0-2.7-.1-5-.2-7.1h4.3l.3 4.4h.1c1.3-2.5 4.4-5 8.8-5 3.7 0 9.4 2.2 9.4 11.2v15.8h-4.8V82.6c0-4.3-1.6-7.8-6.1-7.8-3.2 0-5.6 2.2-6.5 4.9-.2.6-.3 1.4-.3 2.2v15.9h-4.8V78.6zM84 61.6c2.9-.4 6.3-.8 10.1-.8 6.8 0 11.7 1.6 14.9 4.6 3.3 3 5.2 7.3 5.2 13.2 0 6-1.9 10.9-5.3 14.3-3.4 3.4-9.1 5.3-16.3 5.3-3.4 0-6.2-.2-8.6-.4V61.6zm4.8 32.5c1.2.2 3 .3 4.8.3 10.2 0 15.7-5.7 15.7-15.6.1-8.7-4.9-14.2-14.9-14.2-2.5 0-4.3.2-5.6.5v29zM132.1 97.8l-.4-3.3h-.2a9.79 9.79 0 01-8.1 3.9c-5.4 0-8.1-3.8-8.1-7.6 0-6.4 5.7-9.9 15.9-9.8v-.5c0-2.2-.6-6.1-6-6.1-2.5 0-5 .8-6.9 2l-1.1-3.2c2.2-1.4 5.4-2.3 8.7-2.3 8.1 0 10.1 5.5 10.1 10.8v9.9c0 2.3.1 4.5.4 6.3h-4.3zm-.7-13.4c-5.3-.1-11.2.8-11.2 5.9 0 3.1 2.1 4.6 4.5 4.6 3.4 0 5.6-2.2 6.4-4.4.2-.5.3-1 .3-1.5v-4.6zM146.6 63.9v7.6h6.9v3.7h-6.9v14.2c0 3.3.9 5.1 3.6 5.1 1.3 0 2.2-.2 2.8-.3l.2 3.6c-.9.4-2.4.7-4.3.7-2.2 0-4-.7-5.2-2-1.4-1.4-1.9-3.8-1.9-6.9V75.1h-4.1v-3.7h4.1v-6.3l4.8-1.2zM171.4 97.8l-.4-3.3h-.2a9.79 9.79 0 01-8.1 3.9c-5.4 0-8.1-3.8-8.1-7.6 0-6.4 5.7-9.9 15.9-9.8v-.5c0-2.2-.6-6.1-6-6.1-2.5 0-5 .8-6.9 2l-1.1-3.2c2.2-1.4 5.4-2.3 8.7-2.3 8.1 0 10.1 5.5 10.1 10.8v9.9c0 2.3.1 4.5.4 6.3h-4.3zm-.7-13.4c-5.3-.1-11.2.8-11.2 5.9 0 3.1 2.1 4.6 4.5 4.6 3.4 0 5.6-2.2 6.4-4.4.2-.5.3-1 .3-1.5v-4.6z"/></g></g></a></g><a href="https://ourworldindata.org/grapher/share-of-the-workforce-employed-in-the-coal-industry-united-kingdom" target="_blank"><text font-size="23.4" x="15" y="33.7" fill="#555"><tspan x="15" y="33.72">Share of the workforce employed in the coal industry, United Kingdom</tspan></text></a><text font-size="14.4" x="15" y="51.9" fill="#666"><tspan x="15" y="51.92">The share of workers employed in coal production, measured as the percentage of the total workforce directly</tspan><tspan x="15" y="67.76">employed or contracted by the coal industry.</tspan></text></g><g class="LineChart"><defs><clipPath id="a"><path d="M33.49 0h830v932.4h-830z"/></clipPath></defs><g class="AxisBoxView"><g class="HorizontalAxis" fill="#666" text-anchor="middle" font-size="16.2"><text x="43.5" y="556.5">1873</text><text x="167.3" y="556.5">1900</text><text x="258.9" y="556.5">1920</text><text x="350.6" y="556.5">1940</text><text x="442.3" y="556.5">1960</text><text x="534" y="556.5">1980</text><text x="625.7" y="556.5">2000</text><text x="703.6" y="556.5">2017</text></g><g class="VerticalAxis" fill="#666" dominant-baseline="middle" text-anchor="end" font-size="16.2"><text x="38.49" y="535.3">0%</text><text x="38.49" y="459.9">1%</text><text x="38.49" y="384.5">2%</text><text x="38.49" y="309">3%</text><text x="38.49" y="233.6">4%</text><text x="38.49" y="158.2">5%</text></g><g class="AxisGridLines"><path stroke="#ccc" d="M43.49 535.3h660.12"/><path stroke="#ddd" stroke-dasharray="3,2" d="M43.49 459.9h660.12M43.49 384.5h660.12M43.49 309h660.12M43.49 233.6h660.12M43.49 158.2h660.12"/></g></g><g clip-path="url(#a)"><g class="HeightedLegend clickable"><g class="legendMark"><text font-size="13.5" x="708.6" y="539.3" fill="#3360a9"><tspan x="708.61" y="539.35">United Kingdom</tspan></text></g></g><g class="Lines"><g class="key-United-Kingdom_0"><path stroke="#3360a9" stroke-linecap="round" d="M44 288l45-16 46-43 46-54 46-42 4 28 5 40 5-13 4-5 5 7 4-48 5-15 9-6 5-28 4-3 5 40 9 40 5 32h4l5 13 4 29 5 20 5 10 4 1 5 7 4 4 5-3 5 3 4 6 5 7 4 21 5 2 4 2 5-4 5-3 4-5 5-4 4-5 5 2 5 9 4 3 5-4h4l5 4 4 3 5 3 5-2 4 2 5 6 4 21 5 12 5 7 4 9 5 9 4 15 5 11 4 8 5 17 5 8 4 4 5 1 4 4 5 7h9l5 2h4l5 3h4l5 2 5 18 4 2 5 5 4 4 5 6 5 6 4 5 5 2 4 4 5 2 4 3 5 2 5 4 4 2 5-2h27l5 1h9l5 1h32l4 1h19" fill="none" stroke-width="1.5"/><g fill="#3360a9"><circle cx="44" cy="288" r="2"/><circle cx="89" cy="272" r="2"/><circle cx="135" cy="229" r="2"/><circle cx="181" cy="175" r="2"/><circle cx="227" cy="133" r="2"/><circle cx="231" cy="161" r="2"/><circle cx="236" cy="201" r="2"/><circle cx="241" cy="188" r="2"/><circle cx="245" cy="183" r="2"/><circle cx="250" cy="190" r="2"/><circle cx="254" cy="142" r="2"/><circle cx="259" cy="127" r="2"/><circle cx="268" cy="121" r="2"/><circle cx="273" cy="93" r="2"/><circle cx="277" cy="90" r="2"/><circle cx="282" cy="130" r="2"/><circle cx="291" cy="170" r="2"/><circle cx="296" cy="202" r="2"/><circle cx="300" cy="202" r="2"/><circle cx="305" cy="215" r="2"/><circle cx="309" cy="244" r="2"/><circle cx="314" cy="264" r="2"/><circle cx="319" cy="274" r="2"/><circle cx="323" cy="275" r="2"/><circle cx="328" cy="282" r="2"/><circle cx="332" cy="286" r="2"/><circle cx="337" cy="283" r="2"/><circle cx="342" cy="286" r="2"/><circle cx="346" cy="292" r="2"/><circle cx="351" cy="299" r="2"/><circle cx="355" cy="320" r="2"/><circle cx="360" cy="322" r="2"/><circle cx="364" cy="324" r="2"/><circle cx="369" cy="320" r="2"/><circle cx="374" cy="317" r="2"/><circle cx="378" cy="312" r="2"/><circle cx="383" cy="308" r="2"/><circle cx="387" cy="303" r="2"/><circle cx="392" cy="305" r="2"/><circle cx="397" cy="314" r="2"/><circle cx="401" cy="317" r="2"/><circle cx="406" cy="313" r="2"/><circle cx="410" cy="313" r="2"/><circle cx="415" cy="317" r="2"/><circle cx="419" cy="320" r="2"/><circle cx="424" cy="323" r="2"/><circle cx="429" cy="321" r="2"/><circle cx="433" cy="323" r="2"/><circle cx="438" cy="329" r="2"/><circle cx="442" cy="350" r="2"/><circle cx="447" cy="362" r="2"/><circle cx="452" cy="369" r="2"/><circle cx="456" cy="378" r="2"/><circle cx="461" cy="387" r="2"/><circle cx="465" cy="402" r="2"/><circle cx="470" cy="413" r="2"/><circle cx="474" cy="421" r="2"/><circle cx="479" cy="438" r="2"/><circle cx="484" cy="446" r="2"/><circle cx="488" cy="450" r="2"/><circle cx="493" cy="451" r="2"/><circle cx="497" cy="455" r="2"/><circle cx="502" cy="462" r="2"/><circle cx="507" cy="462" r="2"/><circle cx="511" cy="462" r="2"/><circle cx="516" cy="464" r="2"/><circle cx="520" cy="464" r="2"/><circle cx="525" cy="467" r="2"/><circle cx="529" cy="467" r="2"/><circle cx="534" cy="469" r="2"/><circle cx="539" cy="487" r="2"/><circle cx="543" cy="489" r="2"/><circle cx="548" cy="494" r="2"/><circle cx="552" cy="498" r="2"/><circle cx="557" cy="504" r="2"/><circle cx="562" cy="510" r="2"/><circle cx="566" cy="515" r="2"/><circle cx="571" cy="517" r="2"/><circle cx="575" cy="521" r="2"/><circle cx="580" cy="523" r="2"/><circle cx="584" cy="526" r="2"/><circle cx="589" cy="528" r="2"/><circle cx="594" cy="532" r="2"/><circle cx="598" cy="534" r="2"/><circle cx="603" cy="532" r="2"/><circle cx="607" cy="532" r="2"/><circle cx="612" cy="532" r="2"/><circle cx="617" cy="532" r="2"/><circle cx="621" cy="532" r="2"/><circle cx="626" cy="532" r="2"/><circle cx="630" cy="532" r="2"/><circle cx="635" cy="533" r="2"/><circle cx="639" cy="533" r="2"/><circle cx="644" cy="533" r="2"/><circle cx="649" cy="534" r="2"/><circle cx="653" cy="534" r="2"/><circle cx="658" cy="534" r="2"/><circle cx="662" cy="534" r="2"/><circle cx="667" cy="534" r="2"/><circle cx="672" cy="534" r="2"/><circle cx="676" cy="534" r="2"/><circle cx="681" cy="534" r="2"/><circle cx="685" cy="535" r="2"/><circle cx="690" cy="535" r="2"/><circle cx="694" cy="535" r="2"/><circle cx="699" cy="535" r="2"/><circle cx="704" cy="535" r="2"/></g></g></g></g></g><g class="SourcesFooter" fill="#777"><g class="clickable" fill="#777"><text font-size="12.6" x="15" y="581.6"><tspan x="15" y="581.58">Source: UK Department for Energy and Climate Change (DECC); Bank of England Statistics</tspan></text></g><text font-size="12.6" x="585.9" y="581.6"><tspan x="585.9" y="581.58"><a target="_blank" href="https://ourworldindata.org/fossil-fuels" fill="#777">OurWorldInData.org/fossil-fuels</a> • <a class="cclogo" href="http://creativecommons.org/licenses/by-sa/4.0/deed.en_US" target="_blank" fill="#777">CC BY-SA</a></tspan></text></g></g></svg>

<svg xmlns="http://www.w3.org/2000/svg" version="1.1" style="font-family:&#x27;Helvetica Neue&#x27;, Helvetica, Arial, sans-serif;font-size:18px;background-color:white;text-rendering:optimizeLegibility;-webkit-font-smoothing:antialiased" width="850" height="600"><g class="ChartTab"><g class="HeaderView"><g opacity="0.8" transform="translate(778, 15) scale(0.27)"><a xmlns:xlink="http://www.w3.org/1999/xlink" xlink:href="https://ourworldindata.org" target="_blank"><g><rect x="0" y="0" fill="#1B2543" width="211.2" height="130.1"/><rect x="0" y="112.2" fill="#E63912" width="211.2" height="17.9"/><g><rect x="1.2" y="12.3" fill="none" width="210.2" height="99.2"/><path fill="#FFFFFF" d="M37.8,32.2c0,12.7-7.7,19.4-17.1,19.4c-9.7,0-16.6-7.5-16.6-18.7c0-11.7,7.3-19.3,17.1-19.3 C31.3,13.7,37.8,21.3,37.8,32.2z M9.2,32.8c0,7.9,4.3,14.9,11.8,14.9c7.5,0,11.8-6.9,11.8-15.3c0-7.3-3.8-14.9-11.8-14.9 C13.1,17.5,9.2,24.8,9.2,32.8z"/><path fill="#FFFFFF" d="M62.7,43.8c0,2.7,0.1,5.1,0.2,7.2h-4.3l-0.3-4.3h-0.1c-1.3,2.1-4,4.9-8.8,4.9c-4.2,0-9.1-2.3-9.1-11.6 V24.6h4.8v14.6c0,5,1.5,8.4,5.9,8.4c3.2,0,5.5-2.2,6.3-4.4c0.3-0.7,0.4-1.6,0.4-2.5V24.6h4.8V43.8z"/><path fill="#FFFFFF" d="M67.3,32.8c0-3.1-0.1-5.8-0.2-8.2h4.2l0.2,5.2h0.2c1.2-3.5,4.1-5.8,7.3-5.8c0.5,0,0.9,0.1,1.4,0.2v4.5 c-0.5-0.1-1-0.2-1.6-0.2c-3.4,0-5.8,2.6-6.5,6.2c-0.1,0.7-0.2,1.4-0.2,2.2V51h-4.8V32.8z"/><path fill="#FFFFFF" d="M95.4,51l-9.4-36.8h5l4.4,18.6c1.1,4.6,2.1,9.2,2.7,12.7h0.1c0.6-3.7,1.8-8,3-12.8l4.9-18.5h5l4.5,18.7 c1,4.4,2,8.7,2.6,12.6h0.1c0.8-4,1.8-8.1,3-12.7l4.9-18.5h4.9L120.6,51h-5L111,31.9c-1.1-4.7-1.9-8.3-2.4-12h-0.1 c-0.7,3.7-1.5,7.3-2.8,12L100.4,51H95.4z"/><path fill="#FFFFFF" d="M154.9,37.6c0,9.8-6.8,14-13.2,14c-7.2,0-12.7-5.2-12.7-13.6c0-8.8,5.8-14,13.1-14 C149.8,24,154.9,29.5,154.9,37.6z M133.9,37.9c0,5.8,3.3,10.1,8,10.1c4.6,0,8-4.3,8-10.3c0-4.5-2.2-10.1-7.9-10.1 C136.3,27.6,133.9,32.8,133.9,37.9z"/><path fill="#FFFFFF" d="M158.2,32.8c0-3.1-0.1-5.8-0.2-8.2h4.2l0.2,5.2h0.2c1.2-3.5,4.1-5.8,7.3-5.8c0.5,0,0.9,0.1,1.4,0.2v4.5 c-0.5-0.1-1-0.2-1.6-0.2c-3.4,0-5.8,2.6-6.5,6.2c-0.1,0.7-0.2,1.4-0.2,2.2V51h-4.8V32.8z"/><path fill="#FFFFFF" d="M173.5,12.3h4.8V51h-4.8V12.3z"/><path fill="#FFFFFF" d="M206.5,12.3v31.9c0,2.3,0.1,5,0.2,6.8h-4.3l-0.2-4.6H202c-1.5,2.9-4.7,5.2-9,5.2 c-6.4,0-11.3-5.4-11.3-13.4c-0.1-8.8,5.4-14.2,11.9-14.2c4,0,6.8,1.9,8,4h0.1V12.3H206.5z M201.7,35.4c0-0.6-0.1-1.4-0.2-2 c-0.7-3.1-3.3-5.6-6.9-5.6c-5,0-7.9,4.4-7.9,10.2c0,5.3,2.6,9.8,7.8,9.8c3.2,0,6.2-2.1,7.1-5.7c0.2-0.7,0.2-1.3,0.2-2.1V35.4z"/><path fill="#FFFFFF" d="M42.8,64c0.1,1.6-1.1,2.9-3.1,2.9c-1.7,0-2.9-1.3-2.9-2.9c0-1.7,1.3-3,3-3C41.7,61,42.8,62.3,42.8,64z M37.4,97.8V71.4h4.8v26.4H37.4z"/><path fill="#FFFFFF" d="M47.5,78.6c0-2.7-0.1-5-0.2-7.1h4.3l0.3,4.4h0.1c1.3-2.5,4.4-5,8.8-5c3.7,0,9.4,2.2,9.4,11.2v15.8h-4.8 V82.6c0-4.3-1.6-7.8-6.1-7.8c-3.2,0-5.6,2.2-6.5,4.9c-0.2,0.6-0.3,1.4-0.3,2.2v15.9h-4.8V78.6z"/><path fill="#FFFFFF" d="M84,61.6c2.9-0.4,6.3-0.8,10.1-0.8c6.8,0,11.7,1.6,14.9,4.6c3.3,3,5.2,7.3,5.2,13.2c0,6-1.9,10.9-5.3,14.3 c-3.4,3.4-9.1,5.3-16.3,5.3c-3.4,0-6.2-0.2-8.6-0.4V61.6z M88.8,94.1c1.2,0.2,3,0.3,4.8,0.3c10.2,0,15.7-5.7,15.7-15.6 c0.1-8.7-4.9-14.2-14.9-14.2c-2.5,0-4.3,0.2-5.6,0.5V94.1z"/><path fill="#FFFFFF" d="M132.1,97.8l-0.4-3.3h-0.2c-1.5,2.1-4.3,3.9-8.1,3.9c-5.4,0-8.1-3.8-8.1-7.6c0-6.4,5.7-9.9,15.9-9.8v-0.5 c0-2.2-0.6-6.1-6-6.1c-2.5,0-5,0.8-6.9,2l-1.1-3.2c2.2-1.4,5.4-2.3,8.7-2.3c8.1,0,10.1,5.5,10.1,10.8v9.9c0,2.3,0.1,4.5,0.4,6.3 H132.1z M131.4,84.4c-5.3-0.1-11.2,0.8-11.2,5.9c0,3.1,2.1,4.6,4.5,4.6c3.4,0,5.6-2.2,6.4-4.4c0.2-0.5,0.3-1,0.3-1.5V84.4z"/><path fill="#FFFFFF" d="M146.6,63.9v7.6h6.9v3.7h-6.9v14.2c0,3.3,0.9,5.1,3.6,5.1c1.3,0,2.2-0.2,2.8-0.3l0.2,3.6 c-0.9,0.4-2.4,0.7-4.3,0.7c-2.2,0-4-0.7-5.2-2c-1.4-1.4-1.9-3.8-1.9-6.9V75.1h-4.1v-3.7h4.1v-6.3L146.6,63.9z"/><path fill="#FFFFFF" d="M171.4,97.8l-0.4-3.3h-0.2c-1.5,2.1-4.3,3.9-8.1,3.9c-5.4,0-8.1-3.8-8.1-7.6c0-6.4,5.7-9.9,15.9-9.8v-0.5 c0-2.2-0.6-6.1-6-6.1c-2.5,0-5,0.8-6.9,2l-1.1-3.2c2.2-1.4,5.4-2.3,8.7-2.3c8.1,0,10.1,5.5,10.1,10.8v9.9c0,2.3,0.1,4.5,0.4,6.3 H171.4z M170.7,84.4c-5.3-0.1-11.2,0.8-11.2,5.9c0,3.1,2.1,4.6,4.5,4.6c3.4,0,5.6-2.2,6.4-4.4c0.2-0.5,0.3-1,0.3-1.5V84.4z"/></g></g></a></g><a href="https://ourworldindata.org/grapher/share-of-the-workforce-employed-in-the-coal-industry-united-kingdom" target="_blank"><text font-size="23.40" x="15.0" y="33.7" fill="#555"><tspan x="15" y="33.72">Share of the workforce employed in the coal industry, United Kingdom</tspan></text></a><text font-size="14.40" x="15.0" y="51.9" fill="#666"><tspan x="15" y="51.919999999999995">The share of workers employed in coal production, measured as the percentage of the total workforce directly</tspan><tspan x="15" y="67.75999999999999">employed or contracted by the coal industry.</tspan></text></g><g class="LineChart"><defs><clipPath id="boundsClip-2"><rect x="33.49" y="0" width="830" height="932.4000000000001"></rect></clipPath></defs><g class="AxisBoxView"><g class="HorizontalAxis"><text x="43.5" y="556.5" fill="#666" text-anchor="middle" font-size="16.2">1873</text><text x="167.3" y="556.5" fill="#666" text-anchor="middle" font-size="16.2">1900</text><text x="258.9" y="556.5" fill="#666" text-anchor="middle" font-size="16.2">1920</text><text x="350.6" y="556.5" fill="#666" text-anchor="middle" font-size="16.2">1940</text><text x="442.3" y="556.5" fill="#666" text-anchor="middle" font-size="16.2">1960</text><text x="534" y="556.5" fill="#666" text-anchor="middle" font-size="16.2">1980</text><text x="625.7" y="556.5" fill="#666" text-anchor="middle" font-size="16.2">2000</text><text x="703.6" y="556.5" fill="#666" text-anchor="middle" font-size="16.2">2017</text></g><g class="VerticalAxis"><text x="38.49" y="535.3" fill="#666" dominant-baseline="middle" text-anchor="end" font-size="16.2">0%</text><text x="38.49" y="459.9" fill="#666" dominant-baseline="middle" text-anchor="end" font-size="16.2">1%</text><text x="38.49" y="384.5" fill="#666" dominant-baseline="middle" text-anchor="end" font-size="16.2">2%</text><text x="38.49" y="309" fill="#666" dominant-baseline="middle" text-anchor="end" font-size="16.2">3%</text><text x="38.49" y="233.6" fill="#666" dominant-baseline="middle" text-anchor="end" font-size="16.2">4%</text><text x="38.49" y="158.2" fill="#666" dominant-baseline="middle" text-anchor="end" font-size="16.2">5%</text></g><g class="AxisGridLines"><line x1="43.49" y1="535.3" x2="703.61" y2="535.3" stroke="#ccc"></line><line x1="43.49" y1="459.9" x2="703.61" y2="459.9" stroke="#ddd" stroke-dasharray="3,2"></line><line x1="43.49" y1="384.5" x2="703.61" y2="384.5" stroke="#ddd" stroke-dasharray="3,2"></line><line x1="43.49" y1="309" x2="703.61" y2="309" stroke="#ddd" stroke-dasharray="3,2"></line><line x1="43.49" y1="233.6" x2="703.61" y2="233.6" stroke="#ddd" stroke-dasharray="3,2"></line><line x1="43.49" y1="158.2" x2="703.61" y2="158.2" stroke="#ddd" stroke-dasharray="3,2"></line></g></g><g clip-path="url(#boundsClip-2)"><g class="HeightedLegend clickable"><g class="legendMark"><rect x="703.61" y="528.55" width="131.39" height="13.5" fill="#fff" opacity="0"></rect><text font-size="13.50" x="708.6" y="539.3" fill="#3360a9"><tspan x="708.61" y="539.3499999999999">United Kingdom</tspan></text></g></g><g class="Lines"><rect x="43" y="90" width="660" height="445" fill="rgba(255,255,255,0)" opacity="0"></rect><g class="key-United-Kingdom_0"><path stroke="#3360a9" stroke-linecap="round" d="M44 288L89 272L135 229L181 175L227 133L231 161L236 201L241 188L245 183L250 190L254 142L259 127L268 121L273 93L277 90L282 130L291 170L296 202L300 202L305 215L309 244L314 264L319 274L323 275L328 282L332 286L337 283L342 286L346 292L351 299L355 320L360 322L364 324L369 320L374 317L378 312L383 308L387 303L392 305L397 314L401 317L406 313L410 313L415 317L419 320L424 323L429 321L433 323L438 329L442 350L447 362L452 369L456 378L461 387L465 402L470 413L474 421L479 438L484 446L488 450L493 451L497 455L502 462L507 462L511 462L516 464L520 464L525 467L529 467L534 469L539 487L543 489L548 494L552 498L557 504L562 510L566 515L571 517L575 521L580 523L584 526L589 528L594 532L598 534L603 532L607 532L612 532L617 532L621 532L626 532L630 532L635 533L639 533L644 533L649 534L653 534L658 534L662 534L667 534L672 534L676 534L681 534L685 535L690 535L694 535L699 535L704 535" fill="none" stroke-width="1.5"></path><g fill="#3360a9"><circle cx="44" cy="288" r="2"></circle><circle cx="89" cy="272" r="2"></circle><circle cx="135" cy="229" r="2"></circle><circle cx="181" cy="175" r="2"></circle><circle cx="227" cy="133" r="2"></circle><circle cx="231" cy="161" r="2"></circle><circle cx="236" cy="201" r="2"></circle><circle cx="241" cy="188" r="2"></circle><circle cx="245" cy="183" r="2"></circle><circle cx="250" cy="190" r="2"></circle><circle cx="254" cy="142" r="2"></circle><circle cx="259" cy="127" r="2"></circle><circle cx="268" cy="121" r="2"></circle><circle cx="273" cy="93" r="2"></circle><circle cx="277" cy="90" r="2"></circle><circle cx="282" cy="130" r="2"></circle><circle cx="291" cy="170" r="2"></circle><circle cx="296" cy="202" r="2"></circle><circle cx="300" cy="202" r="2"></circle><circle cx="305" cy="215" r="2"></circle><circle cx="309" cy="244" r="2"></circle><circle cx="314" cy="264" r="2"></circle><circle cx="319" cy="274" r="2"></circle><circle cx="323" cy="275" r="2"></circle><circle cx="328" cy="282" r="2"></circle><circle cx="332" cy="286" r="2"></circle><circle cx="337" cy="283" r="2"></circle><circle cx="342" cy="286" r="2"></circle><circle cx="346" cy="292" r="2"></circle><circle cx="351" cy="299" r="2"></circle><circle cx="355" cy="320" r="2"></circle><circle cx="360" cy="322" r="2"></circle><circle cx="364" cy="324" r="2"></circle><circle cx="369" cy="320" r="2"></circle><circle cx="374" cy="317" r="2"></circle><circle cx="378" cy="312" r="2"></circle><circle cx="383" cy="308" r="2"></circle><circle cx="387" cy="303" r="2"></circle><circle cx="392" cy="305" r="2"></circle><circle cx="397" cy="314" r="2"></circle><circle cx="401" cy="317" r="2"></circle><circle cx="406" cy="313" r="2"></circle><circle cx="410" cy="313" r="2"></circle><circle cx="415" cy="317" r="2"></circle><circle cx="419" cy="320" r="2"></circle><circle cx="424" cy="323" r="2"></circle><circle cx="429" cy="321" r="2"></circle><circle cx="433" cy="323" r="2"></circle><circle cx="438" cy="329" r="2"></circle><circle cx="442" cy="350" r="2"></circle><circle cx="447" cy="362" r="2"></circle><circle cx="452" cy="369" r="2"></circle><circle cx="456" cy="378" r="2"></circle><circle cx="461" cy="387" r="2"></circle><circle cx="465" cy="402" r="2"></circle><circle cx="470" cy="413" r="2"></circle><circle cx="474" cy="421" r="2"></circle><circle cx="479" cy="438" r="2"></circle><circle cx="484" cy="446" r="2"></circle><circle cx="488" cy="450" r="2"></circle><circle cx="493" cy="451" r="2"></circle><circle cx="497" cy="455" r="2"></circle><circle cx="502" cy="462" r="2"></circle><circle cx="507" cy="462" r="2"></circle><circle cx="511" cy="462" r="2"></circle><circle cx="516" cy="464" r="2"></circle><circle cx="520" cy="464" r="2"></circle><circle cx="525" cy="467" r="2"></circle><circle cx="529" cy="467" r="2"></circle><circle cx="534" cy="469" r="2"></circle><circle cx="539" cy="487" r="2"></circle><circle cx="543" cy="489" r="2"></circle><circle cx="548" cy="494" r="2"></circle><circle cx="552" cy="498" r="2"></circle><circle cx="557" cy="504" r="2"></circle><circle cx="562" cy="510" r="2"></circle><circle cx="566" cy="515" r="2"></circle><circle cx="571" cy="517" r="2"></circle><circle cx="575" cy="521" r="2"></circle><circle cx="580" cy="523" r="2"></circle><circle cx="584" cy="526" r="2"></circle><circle cx="589" cy="528" r="2"></circle><circle cx="594" cy="532" r="2"></circle><circle cx="598" cy="534" r="2"></circle><circle cx="603" cy="532" r="2"></circle><circle cx="607" cy="532" r="2"></circle><circle cx="612" cy="532" r="2"></circle><circle cx="617" cy="532" r="2"></circle><circle cx="621" cy="532" r="2"></circle><circle cx="626" cy="532" r="2"></circle><circle cx="630" cy="532" r="2"></circle><circle cx="635" cy="533" r="2"></circle><circle cx="639" cy="533" r="2"></circle><circle cx="644" cy="533" r="2"></circle><circle cx="649" cy="534" r="2"></circle><circle cx="653" cy="534" r="2"></circle><circle cx="658" cy="534" r="2"></circle><circle cx="662" cy="534" r="2"></circle><circle cx="667" cy="534" r="2"></circle><circle cx="672" cy="534" r="2"></circle><circle cx="676" cy="534" r="2"></circle><circle cx="681" cy="534" r="2"></circle><circle cx="685" cy="535" r="2"></circle><circle cx="690" cy="535" r="2"></circle><circle cx="694" cy="535" r="2"></circle><circle cx="699" cy="535" r="2"></circle><circle cx="704" cy="535" r="2"></circle></g></g></g></g></g><g class="SourcesFooter" style="fill:#777"><g class="clickable" style="fill:#777"><text font-size="12.60" x="15.0" y="581.6"><tspan x="15" y="581.58">Source: UK Department for Energy and Climate Change (DECC); Bank of England Statistics</tspan></text></g><text font-size="12.60" x="585.9" y="581.6"><tspan x="585.898" y="581.58"><a target='_blank' style='fill: #777;' href='https://ourworldindata.org/fossil-fuels'>OurWorldInData.org/fossil-fuels</a> • <a style="fill: #777;" class="cclogo" href="http://creativecommons.org/licenses/by-sa/4.0/deed.en_US" target="_blank">CC BY-SA</a></tspan></text></g></g></svg>
